packages/match-icons/product/svg/trust-onboard.svg

<svg fill="none" height="32" viewBox="0 0 32 32" width="32" xmlns="http://www.w3.org/2000/svg" xmlns:xlink="http://www.w3.org/1999/xlink"><clipPath id="a"><path d="m0 0h32v32h-32z"/></clipPath><g clip-path="url(#a)" fill="#394762"><path d="m17 8.50002c-.3264-.30635-.7527-.48399-1.2-.5h-11.30001c-.32905-.00266-.65533.06018-.95985.18487-.30452.1247-.58118.30874-.81386.54142s-.41672.50934-.54142.81386c-.12469.30452-.18753.63083-.18487.95983v19c-.00266.3291.06018.6554.18487.9599.1247.3045.30874.5811.54142.8138s.50934.4168.81386.5414c.30452.1247.6308.1876.95985.1849h13.00001c.329.0027.6553-.0602.9598-.1849.3046-.1246.5812-.3087.8139-.5414s.4167-.5093.5414-.8138.1876-.6308.1849-.9599v-17.3c-.0175-.4177-.1969-.8121-.5-1.1zm1 20.99998c.0044.0668-.0055.1338-.0291.1965-.0235.0626-.0602.1195-.1075.1669-.0474.0473-.1043.084-.167.1076-.0626.0235-.1296.0334-.1964.029h-13.00001c-.0668.0044-.13378-.0055-.19645-.029-.06267-.0236-.11957-.0603-.16692-.1076-.04734-.0474-.08402-.1043-.10758-.1669-.02357-.0627-.03347-.1297-.02905-.1965v-19c-.00442-.0668.00548-.1338.02905-.1964.02356-.0627.06024-.1196.10758-.1669.04735-.0474.10425-.0841.16692-.1076.06267-.0236.12965-.0335.19645-.0291h11.10001l2.4 2.4zm-11.00001-13.5c-.13361-.0088-.26756.011-.3929.0581-.12533.0471-.23915.1205-.33383.2152s-.16804.2085-.21517.3338c-.04713.1254-.06694.2593-.0581.3929v10c-.00884.1336.01097.2676.0581.3929.04713.1254.12049.2392.21517.3339.09468.0946.2085.168.33383.2151.12534.0472.25929.067.3929.0581h8.00001c.1336.0089.2676-.0109.3929-.0581.1253-.0471.2391-.1205.3338-.2151.0947-.0947.1681-.2085.2152-.3339.0471-.1253.0669-.2593.0581-.3929v-10c.0088-.1336-.011-.2675-.0581-.3929-.0471-.1253-.1205-.2391-.2152-.3338s-.2085-.1681-.3338-.2152-.2593-.0669-.3929-.0581zm7.00001 4.6-2.6-2.6h2.6zm-6.00001 2.8 2.60001 2.6h-2.60001zm5.40001 2.6-5.40001-5.4v-2.6h.6l5.40001 5.4v2.6z"/><path d="m28 4.51v-1.51c0-.79565-.3161-1.55871-.8787-2.12132s-1.3257-.87868-2.1213-.87868-1.5587.31607-2.1213.87868-.8787 1.32567-.8787 2.12132v1.51c-.3105.23287-.5625.53483-.7361.88197-.1735.34713-.2639.72992-.2639 1.11803v2c.0026.66131.2672 1.29463.7358 1.7613.4685.4667 1.1029.7287 1.7642.7287h3c.663 0 1.2989-.2634 1.7678-.7322.4688-.46887.7322-1.10476.7322-1.7678v-2c-.0015-.38642-.0927-.76723-.2662-1.11251s-.4247-.64564-.7338-.87749zm-3-2.51c.1336-.00884.2676.01097.3929.0581s.2391.12049.3338.21517.1681.2085.2152.33383c.0471.12534.0669.25929.0581.3929v1h-2v-1c-.0088-.13361.011-.26756.0581-.3929.0471-.12533.1205-.23915.2152-.33383s.2085-.16804.3338-.21517.2593-.06694.3929-.0581zm2 6.5c0 .13261-.0527.25979-.1464.35355-.0938.09377-.221.14645-.3536.14645h-3c-.1326 0-.2598-.05268-.3536-.14645-.0937-.09376-.1464-.22094-.1464-.35355v-2c0-.13261.0527-.25979.1464-.35355.0938-.09377.221-.14645.3536-.14645h3c.1326 0 .2598.05268.3536.14645.0937.09376.1464.22094.1464.35355z"/></g></svg>

<svg width="32" height="32" viewBox="0 0 32 32" fill="none" xmlns="http://www.w3.org/2000/svg">
<g clip-path="url(#clip0)">
<path d="M17 8.50002C16.6736 8.19367 16.2473 8.01603 15.8 8.00002H4.49999C4.17094 7.99736 3.84466 8.0602 3.54014 8.18489C3.23562 8.30959 2.95896 8.49363 2.72628 8.72631C2.4936 8.95899 2.30956 9.23565 2.18486 9.54017C2.06017 9.84469 1.99733 10.171 1.99999 10.5V29.5C1.99733 29.8291 2.06017 30.1554 2.18486 30.4599C2.30956 30.7644 2.4936 31.041 2.72628 31.2737C2.95896 31.5064 3.23562 31.6905 3.54014 31.8151C3.84466 31.9398 4.17094 32.0027 4.49999 32H17.5C17.829 32.0027 18.1553 31.9398 18.4598 31.8151C18.7644 31.6905 19.041 31.5064 19.2737 31.2737C19.5064 31.041 19.6904 30.7644 19.8151 30.4599C19.9398 30.1554 20.0027 29.8291 20 29.5V12.2C19.9825 11.7823 19.8031 11.3879 19.5 11.1L17 8.50002ZM18 29.5C18.0044 29.5668 17.9945 29.6338 17.9709 29.6965C17.9474 29.7591 17.9107 29.816 17.8634 29.8634C17.816 29.9107 17.7591 29.9474 17.6964 29.971C17.6338 29.9945 17.5668 30.0044 17.5 30H4.49999C4.43319 30.0044 4.36621 29.9945 4.30354 29.971C4.24087 29.9474 4.18397 29.9107 4.13662 29.8634C4.08928 29.816 4.0526 29.7591 4.02904 29.6965C4.00547 29.6338 3.99557 29.5668 3.99999 29.5V10.5C3.99557 10.4332 4.00547 10.3662 4.02904 10.3036C4.0526 10.2409 4.08928 10.184 4.13662 10.1367C4.18397 10.0893 4.24087 10.0526 4.30354 10.0291C4.36621 10.0055 4.43319 9.9956 4.49999 10H15.6L18 12.4V29.5ZM6.99999 16C6.86638 15.9912 6.73243 16.011 6.60709 16.0581C6.48176 16.1052 6.36794 16.1786 6.27326 16.2733C6.17858 16.368 6.10522 16.4818 6.05809 16.6071C6.01096 16.7325 5.99115 16.8664 5.99999 17V27C5.99115 27.1336 6.01096 27.2676 6.05809 27.3929C6.10522 27.5183 6.17858 27.6321 6.27326 27.7268C6.36794 27.8214 6.48176 27.8948 6.60709 27.9419C6.73243 27.9891 6.86638 28.0089 6.99999 28H15C15.1336 28.0089 15.2676 27.9891 15.3929 27.9419C15.5182 27.8948 15.632 27.8214 15.7267 27.7268C15.8214 27.6321 15.8948 27.5183 15.9419 27.3929C15.989 27.2676 16.0088 27.1336 16 27V17C16.0088 16.8664 15.989 16.7325 15.9419 16.6071C15.8948 16.4818 15.8214 16.368 15.7267 16.2733C15.632 16.1786 15.5182 16.1052 15.3929 16.0581C15.2676 16.011 15.1336 15.9912 15 16H6.99999ZM14 20.6L11.4 18H14V20.6ZM7.99999 23.4L10.6 26H7.99999V23.4ZM13.4 26L7.99999 20.6V18H8.59999L14 23.4V26H13.4Z" fill="#394762"/>
<path d="M28 4.51V3C28 2.20435 27.6839 1.44129 27.1213 0.87868C26.5587 0.31607 25.7956 0 25 0C24.2044 0 23.4413 0.31607 22.8787 0.87868C22.3161 1.44129 22 2.20435 22 3V4.51C21.6895 4.74287 21.4375 5.04483 21.2639 5.39197C21.0904 5.7391 21 6.12189 21 6.51V8.51C21.0026 9.17131 21.2672 9.80463 21.7358 10.2713C22.2043 10.738 22.8387 11 23.5 11H26.5C27.163 11 27.7989 10.7366 28.2678 10.2678C28.7366 9.79893 29 9.16304 29 8.5V6.5C28.9985 6.11358 28.9073 5.73277 28.7338 5.38749C28.5603 5.04221 28.3091 4.74185 28 4.51V4.51ZM25 2C25.1336 1.99116 25.2676 2.01097 25.3929 2.0581C25.5182 2.10523 25.632 2.17859 25.7267 2.27327C25.8214 2.36795 25.8948 2.48177 25.9419 2.6071C25.989 2.73244 26.0088 2.86639 26 3V4H24V3C23.9912 2.86639 24.011 2.73244 24.0581 2.6071C24.1052 2.48177 24.1786 2.36795 24.2733 2.27327C24.368 2.17859 24.4818 2.10523 24.6071 2.0581C24.7324 2.01097 24.8664 1.99116 25 2V2ZM27 8.5C27 8.63261 26.9473 8.75979 26.8536 8.85355C26.7598 8.94732 26.6326 9 26.5 9H23.5C23.3674 9 23.2402 8.94732 23.1464 8.85355C23.0527 8.75979 23 8.63261 23 8.5V6.5C23 6.36739 23.0527 6.24021 23.1464 6.14645C23.2402 6.05268 23.3674 6 23.5 6H26.5C26.6326 6 26.7598 6.05268 26.8536 6.14645C26.9473 6.24021 27 6.36739 27 6.5V8.5Z" fill="#394762"/>
</g>
<defs>
<clipPath id="clip0">
<rect width="32" height="32" fill="white"/>
</clipPath>
</defs>
</svg>
